X: 12
T: Sliabh Russell
Z: JACKB
S: https://thesession.org/tunes/335#setting53247
R: jig
M: 6/8
L: 1/8
K: Ador
|:eAA A/B/cd|eaf ged|edB c2A|BGG AB/c/d|
eAA A/B/cd|eaf ged|edB c2A|1 BAG A3:|2 BAG ABd||
|:eaa efg|agf ged|eaa efg|afd e3|
eaa efg|agf ged|edB c2A|BAG ABd:|

%-------------------- TUNE SEPARATOR --------------------%

